X:112
T:Quadrille
S:John Moore's Book 2
Z:Transcribed by Steve Mansfield 05/2021
%%VWML: Moore2-4494-p86-0
F:http://www.vwml.org/record/Moore2/4494/p86
M:6/8
L:1/8
K:D
A | d2d dcd | A2d f3 | efg Bfe | cdB ABc | 
d2d dcd | A2d f3 | efg Bfe | cBc d2 :|
|: A | a3 g3 | f3 e3 | dcd Bed | cdB A2A | 
a3 g3 | f3 e3 | dcd Bed | cBc d2 :|

